X: 07034
T: FERREL'S HORNPIPE
C: Bob McQuillen 15 April 89
B: Bob's Note Book 7 #34
%R: hornpipe, reel
Z: 2021 John Chambers <jc:trillian.mit.edu>
M: C
L: 1/8
K: G	% and D
BA \
| G2DG A2BA | GABG c2Bc | dBdg edce | dBGB AcBA |\
| G2DG A2BA | GABG c2Bc | dBdg fedc | B2G2 G2 :|
K: D
|: AG \
| FAdA FAdA | cdec dBAG | FAdA BGBd | AdAF E2AG |\
| FAdA FAdA | cdec dBAG | FAdB Aceg | f2d2 d2 :|
%%begintext align
%% It's about time I got
%% this tune out for Frank Ferrel - He was so nice to us
%% when we were out to his Fiddle and Dance Week
%% '84 in Port Townsend, WA. We sure had a geat
%% time - Frank, I hope this tune will sound OK when
%% you play it on your fiddle!
%%endtext

%%sep 1 1 500

%%sep 1 1 500

